X: 20482
Q: "Moderate."
M: 3/4
L: 1/8
K: D
d2A2d2 | f4e>d | a2(ba)(gf) | e2d2e2 |\
d2A2d2 | f2z2e>d | a2(ba)(gf) | (fe)d2B2 |\
c2(dc)(BA) | e2a3e | (e>d)c2B2 | A4 A>A |
(gf)(ed)(cB) | A2d2A2 | B2G2g2 | f2e2f2 |\
g2b2e2 | a2f2d2 | g2B2e2 | (Hd2 Hc2) AA |\
f3ga2 | b2[d'2d2](Ba/g/) | f3ge2 | d4 |]


